flaticon/constructions/pipe-7.svg

<svg xmlns="http://www.w3.org/2000/svg" width="32" height="32" viewBox="0 0 24 24">
    <path d="M9.761719 17.039062C9.039062 17.679688 8.28125 18.238281 7.441406 18.640625 7.238281 18.71875 7.160156 18.960938 7.238281 19.160156 7.320312 19.320312 7.441406 19.398438 7.601562 19.398438 7.679688 19.398438 7.71875 19.359375 7.800781 19.359375 8.679688 18.921875 9.519531 18.320312 10.28125 17.640625 10.480469 17.480469 10.480469 17.238281 10.320312 17.078125 10.160156 16.878906 9.921875 16.878906 9.761719 17.039062zM12.71875 13.238281C12.519531 13.160156 12.28125 13.28125 12.199219 13.480469 11.800781 14.441406 11.28125 15.359375 10.601562 16.160156 10.441406 16.320312 10.480469 16.558594 10.640625 16.71875 10.679688 16.761719 10.800781 16.800781 10.878906 16.800781 11 16.800781 11.121094 16.761719 11.238281 16.679688 11.960938 15.800781 12.558594 14.800781 12.960938 13.761719 13.039062 13.558594 12.921875 13.320312 12.71875 13.238281zM17.199219 8.800781L13.199219 8.800781C12.960938 8.800781 12.800781 8.960938 12.800781 9.199219 12.800781 9.441406 12.960938 9.601562 13.199219 9.601562L17.199219 9.601562C17.441406 9.601562 17.601562 9.441406 17.601562 9.199219 17.601562 8.960938 17.441406 8.800781 17.199219 8.800781zM17.199219 8.800781"/>
    <path d="M 23.199219 3.601562 L 21.601562 3.601562 C 21.160156 3.601562 20.800781 3.960938 20.800781 4.398438 L 20.800781 4.800781 L 15.199219 4.800781 L 15.199219 4 L 15.601562 4 C 16.039062 4 16.398438 3.640625 16.398438 3.199219 L 16.398438 1.601562 C 16.398438 1.160156 16.039062 0.800781 15.601562 0.800781 L 8.398438 0.800781 C 7.960938 0.800781 7.601562 1.160156 7.601562 1.601562 L 7.601562 3.199219 C 7.601562 3.640625 7.960938 4 8.398438 4 L 8.800781 4 L 8.800781 4.800781 L 3.199219 4.800781 L 3.199219 4.398438 C 3.199219 3.960938 2.839844 3.601562 2.398438 3.601562 L 0.800781 3.601562 C 0.359375 3.601562 0 3.960938 0 4.398438 L 0 11.601562 C 0 12.039062 0.359375 12.398438 0.800781 12.398438 L 2.398438 12.398438 C 2.839844 12.398438 3.199219 12.039062 3.199219 11.601562 L 3.199219 11.199219 L 8.71875 11.199219 C 8.160156 13.71875 5.878906 15.601562 3.199219 15.601562 L 3.199219 15.199219 C 3.199219 14.761719 2.839844 14.398438 2.398438 14.398438 L 0.800781 14.398438 C 0.359375 14.398438 0 14.761719 0 15.199219 L 0 22.398438 C 0 22.839844 0.359375 23.199219 0.800781 23.199219 L 2.398438 23.199219 C 2.839844 23.199219 3.199219 22.839844 3.199219 22.398438 L 3.199219 22 C 9.398438 22 14.558594 17.28125 15.160156 11.199219 L 20.800781 11.199219 L 20.800781 11.601562 C 20.800781 12.039062 21.160156 12.398438 21.601562 12.398438 L 23.199219 12.398438 C 23.640625 12.398438 24 12.039062 24 11.601562 L 24 4.398438 C 24 3.960938 23.640625 3.601562 23.199219 3.601562 Z M 8.398438 1.601562 L 15.601562 1.601562 L 15.601562 3.199219 L 8.398438 3.199219 Z M 2.398438 11.601562 L 0.800781 11.601562 L 0.800781 4.398438 L 2.398438 4.398438 Z M 2.398438 22.398438 L 0.800781 22.398438 L 0.800781 15.199219 L 2.398438 15.199219 Z M 14.800781 10.398438 C 14.601562 10.398438 14.398438 10.558594 14.398438 10.761719 C 14 16.601562 9.078125 21.199219 3.199219 21.199219 L 3.199219 16.398438 C 6.441406 16.398438 9.160156 14 9.601562 10.839844 C 9.640625 10.71875 9.601562 10.601562 9.519531 10.519531 C 9.441406 10.441406 9.320312 10.398438 9.199219 10.398438 L 3.199219 10.398438 L 3.199219 5.601562 L 9.199219 5.601562 C 9.441406 5.601562 9.601562 5.441406 9.601562 5.199219 L 9.601562 4 L 14.398438 4 L 14.398438 5.199219 C 14.398438 5.441406 14.558594 5.601562 14.800781 5.601562 L 20.800781 5.601562 L 20.800781 8.800781 L 20.398438 8.800781 C 20.160156 8.800781 20 8.960938 20 9.199219 C 20 9.441406 20.160156 9.601562 20.398438 9.601562 L 20.800781 9.601562 L 20.800781 10.398438 Z M 23.199219 11.601562 L 21.601562 11.601562 L 21.601562 4.398438 L 23.199219 4.398438 Z M 23.199219 11.601562"/>
    <path d="M 18.800781 8.800781 C 18.558594 8.800781 18.398438 8.960938 18.398438 9.199219 C 18.398438 9.441406 18.558594 9.601562 18.800781 9.601562 C 19.039062 9.601562 19.199219 9.441406 19.199219 9.199219 C 19.199219 8.960938 19.039062 8.800781 18.800781 8.800781 Z M 18.800781 8.800781"/>
</svg>

<svg xmlns="http://www.w3.org/2000/svg" width="32" height="32" viewBox="0 0 24 24">
    <path d="M9.762 17.04c-.723.64-1.48 1.198-2.32 1.6-.204.079-.282.32-.204.52.082.16.203.238.364.238.078 0 .117-.039.199-.039.879-.437 1.719-1.039 2.48-1.718.2-.16.2-.403.04-.563-.16-.2-.4-.2-.56-.039zm0 0M12.719 13.238c-.2-.078-.438.043-.52.242-.398.961-.918 1.88-1.597 2.68-.16.16-.122.399.039.559.039.043.16.082.238.082a.62.62 0 0 0 .36-.121 10.78 10.78 0 0 0 1.722-2.918c.078-.203-.04-.442-.242-.524zm0 0M17.2 8.8h-4c-.24 0-.4.16-.4.4 0 .241.16.402.4.402h4c.241 0 .402-.16.402-.403 0-.238-.16-.398-.403-.398zm0 0"/>
    <path d="M23.2 3.602h-1.598c-.442 0-.801.359-.801.796v.403h-5.602V4h.403c.437 0 .796-.36.796-.8V1.601c0-.442-.359-.801-.796-.801H8.398a.801.801 0 0 0-.796.8V3.2c0 .442.359.801.796.801h.403v.8H3.199v-.402a.801.801 0 0 0-.8-.796H.8c-.442 0-.801.359-.801.796v7.204c0 .437.36.796.8.796h1.598c.442 0 .801-.359.801-.796v-.403h5.52c-.559 2.52-2.84 4.403-5.52 4.403v-.403c0-.437-.36-.8-.8-.8H.8c-.442 0-.801.363-.801.8v7.2c0 .44.36.8.8.8h1.598c.442 0 .801-.36.801-.8V22c6.2 0 11.36-4.719 11.961-10.8h5.64v.402c0 .437.36.796.802.796h1.597c.442 0 .801-.359.801-.796V4.398a.801.801 0 0 0-.8-.796zm-14.802-2h7.204v1.597H8.398zm-6 10H.801V4.398h1.597zm0 10.796H.801V15.2h1.597zm12.403-12c-.2 0-.403.16-.403.364C14 16.602 9.078 21.199 3.2 21.199v-4.8a6.467 6.467 0 0 0 6.403-5.56.31.31 0 0 0-.082-.32.46.46 0 0 0-.32-.12h-6V5.601h6c.241 0 .402-.16.402-.403V4h4.796v1.2c0 .241.16.402.403.402h6V8.8h-.403c-.238 0-.398.16-.398.398 0 .242.16.403.398.403h.403v.796zm8.398 1.204h-1.597V4.398h1.597zm0 0"/>
    <path d="M18.8 8.8c-.241 0-.402.16-.402.4 0 .241.16.402.403.402.238 0 .398-.16.398-.403 0-.238-.16-.398-.398-.398zm0 0"/>
</svg>
